X:222
T:Original Cellarius Waltz. Le4.222, The
L:1/16
B:L.Leadley MS#4 c1850
Z:vmp.Mike Hicken 2016 www.village-music-project.org.uk
N: In the original the  time signature is 3/4 but it is notated as shown in 3/8.
N: * These notes are shown as crotchets in the original. They have been changed to give the correct repeats.
M:3/8
Q:1/4=40
K:G
!p!"*"d2|b>fg>Be>d|c>A f3g|a>^ga>fd>c|c>Be>d d2|
b>fg>Be>d|c>A c'3b |a>gf>e'd'>f|a<g g2 !fine!:|
|:A2|f>A f2^e2|f>A f2^e2 |f>ab>af>d|g>fg>A e2|
f>A f2^e2| f>A f2^e2|f>ab>ag>^c|e<d "*"d2 :|

